svg/file/folder_zip_fill.svg

<svg xmlns="http://www.w3.org/2000/svg" width="24" height="24" viewBox="0 0 24 24"><g fill="none" fill-rule="evenodd"><path d="M24,0 L24,24 L0,24 L0,0 L24,0 Z M12.5935,23.2578 L12.5819,23.2595 L12.5109,23.295 L12.4919,23.2987 L12.4767,23.295 L12.4057,23.2595 C12.3958,23.2564 12.387,23.259 12.3821,23.2649 L12.378,23.2758 L12.3609,23.7031 L12.3659,23.7235 L12.3769,23.7357 L12.4805,23.8097 L12.4953,23.8136 L12.5071,23.8097 L12.6107,23.7357 L12.6233,23.7197 L12.6267,23.7031 L12.6096,23.2758 C12.6076,23.2657 12.601,23.2593 12.5935,23.2578 Z M12.8584,23.1453 L12.8445,23.1473 L12.6598,23.2397 L12.6499,23.2499 L12.6472,23.2611 L12.6651,23.6906 L12.6699,23.7034 L12.6784,23.7105 L12.8793,23.8032 C12.8914,23.8069 12.9022,23.803 12.9078,23.7952 L12.9118,23.7812 L12.8777,23.1665 C12.8753,23.1546 12.8674,23.147 12.8584,23.1453 Z M12.143,23.1473 C12.1332,23.1424 12.1222,23.1453 12.1156,23.1526 L12.1099,23.1665 L12.0758,23.7812 C12.0751,23.7927 12.0828,23.8019 12.0926,23.8046 L12.1083,23.8032 L12.3092,23.7105 L12.3186,23.7024 L12.3225,23.6906 L12.3404,23.2611 L12.3372,23.2485 L12.3278,23.2397 L12.143,23.1473 Z"/><path fill="#09244B" d="M9.51938,3 C10.066148,3 10.5863318,3.2237058 10.9615564,3.61430643 L11.0811,3.75061 L12.4806,5.5 L20,5.5 C21.0543909,5.5 21.9181678,6.31587733 21.9945144,7.35073759 L22,7.5 L22,19 C22,20.0543909 21.18415,20.9181678 20.1492661,20.9945144 L20,21 L4,21 C2.94563773,21 2.08183483,20.18415 2.00548573,19.1492661 L2,19 L2,5 C2,3.94563773 2.81587733,3.08183483 3.85073759,3.00548573 L4,3 L9.51938,3 Z M15,16 L14,16 C13.4477,16 13,16.4477 13,17 C13,17.51285 13.386027,17.9355092 13.8833761,17.9932725 L14,18 L15,18 C15.5523,18 16,17.5523 16,17 C16,16.48715 15.613973,16.0644908 15.1166239,16.0067275 L15,16 Z M18,14 L17,14 L16.8833761,14.0067275 C16.386027,14.0644908 16,14.48715 16,15 C16,15.51285 16.386027,15.9355092 16.8833761,15.9932725 L17,16 L18,16 L18.1166239,15.9932725 C18.613973,15.9355092 19,15.51285 19,15 C19,14.48715 18.613973,14.0644908 18.1166239,14.0067275 L18,14 Z M15,12 L14,12 L13.8833761,12.0067275 C13.386027,12.0644908 13,12.48715 13,13 C13,13.51285 13.386027,13.9355092 13.8833761,13.9932725 L14,14 L15,14 L15.1166239,13.9932725 C15.613973,13.9355092 16,13.51285 16,13 C16,12.48715 15.613973,12.0644908 15.1166239,12.0067275 L15,12 Z M18,10 L17,10 C16.4477,10 16,10.4477 16,11 C16,11.51285 16.386027,11.9355092 16.8833761,11.9932725 L17,12 L18,12 C18.5523,12 19,11.5523 19,11 C19,10.48715 18.613973,10.0644908 18.1166239,10.0067275 L18,10 Z M15,8 L14,8 L13.8833761,8.0067278 C13.386027,8.06449347 13,8.48716857 13,9 C13,9.51283143 13.386027,9.93550653 13.8833761,9.9932722 L14,10 L15,10 L15.1166239,9.9932722 C15.613973,9.93550653 16,9.51283143 16,9 C16,8.48716857 15.613973,8.06449347 15.1166239,8.0067278 L15,8 Z"/></g></svg>

<svg xmlns="http://www.w3.org/2000/svg" width="24" height="24"><g fill="none" fill-rule="evenodd"><path d="M24 0v24H0V0zM12.594 23.258l-.012.002-.071.035-.02.004-.014-.004-.071-.036c-.01-.003-.019 0-.024.006l-.004.01-.017.428.005.02.01.013.104.074.015.004.012-.004.104-.074.012-.016.004-.017-.017-.427c-.002-.01-.009-.017-.016-.018m.264-.113-.014.002-.184.093-.01.01-.003.011.018.43.005.012.008.008.201.092c.012.004.023 0 .029-.008l.004-.014-.034-.614c-.003-.012-.01-.02-.02-.022m-.715.002a.023.023 0 0 0-.027.006l-.006.014-.034.614c0 .012.007.02.017.024l.015-.002.201-.093.01-.008.003-.011.018-.43-.003-.012-.01-.01z"/><path fill="#09244B" d="M9.52 3a2 2 0 0 1 1.442.614l.12.137L12.48 5.5H20a2 2 0 0 1 1.995 1.85L22 7.5V19a2 2 0 0 1-1.85 1.995L20 21H4a2 2 0 0 1-1.995-1.85L2 19V5a2 2 0 0 1 1.85-1.995L4 3zM15 16h-1a1 1 0 0 0-.117 1.993L14 18h1a1 1 0 0 0 .117-1.993zm3-2h-1l-.117.007a1 1 0 0 0 0 1.986L17 16h1l.117-.007a1 1 0 0 0 0-1.986zm-3-2h-1l-.117.007a1 1 0 0 0 0 1.986L14 14h1l.117-.007a1 1 0 0 0 0-1.986zm3-2h-1a1 1 0 0 0-.117 1.993L17 12h1a1 1 0 0 0 .117-1.993zm-3-2h-1l-.117.007a1 1 0 0 0 0 1.986L14 10h1l.117-.007a1 1 0 0 0 0-1.986z"/></g></svg>
